X: 1
T: Love me Dearly
%%VWML:Thompsons1765-2277d-p1-0
F:http://www.vwml.org/record/Thompsons1765/2277d/p1
B: Chas & Sam Thompson "Twenty Four Country Dances for the Year 1765", London 1765, p.1 #1 
F: http://www.vwml.org/browse/browse-collections-dance-tune-books/browse-thompsons1765#
Z: 2014 John Chambers <jc:trillian.mit.edu> (added dance description)
M: 6/8
L: 1/8
K: A
|:\agf edc | Bcd cBA | def edc | BcA GFE |\
agf edc | Bcd cBA | def edc | BAG A3 :|
|:\
ece ece | fdf fdf | ece edc | BcA GFE |\
ece ece | fdf fdf | e>fe edc | BAG A3 :|
% - - - - - - - - - - Dance description - - - - - - - - - -
%%begintext align
%% Cast down two Cu: and turn .|. cast up to the top and
%% turn :|. cast off and hands four at Bottom .|: Right
%% and left at top :|:
%%endtext
T: the Royal Prince Frederick
%R: jig
B: Chas & Sam Thompson "Twenty Four Country Dances for the Year 1765", London 1765, p.1 #2 
F: http://www.vwml.org/browse/browse-collections-dance-tune-books/browse-thompsons1765#
Z: 2014 John Chambers <jc:trillian.mit.edu> (added dance description)
M: 6/8
L: 1/8
K: G
|:\
Bcd ded | dcB ABc | dBG F2G | A3 D3 |\
Bcd ded | dcB ABc | dBG E2F | G3 G,3 :|
|:\
G,B,D G,B,D | [E3C3] [E3C3] | DFA DFA | [B3G3] [B3G3] |\
G,B,D G,B,D | [E3C3] [E2C2]B, | A,cB AGF | G3 G,3 :|
% - - - - - - - - - - Dance description - - - - - - - - - -
%%begintext align
%% Cast off one Cu: lead thro' the bottom and cast up one
%% .|. lead thro' the top and cast off :|. 6 hands round .|:
%% and Right hands and left :|:
%%endtext
